X: 52
U:~=!turn!
M:C
L:1/8
K:G
d | {/f}g2 (g>b) TB>AB<G | (E<A)A>B A<af<a | (g/f/)(e/d/) B<g {/^c}d>BA>G | (FG/A/) (D>d) B<GG>d |
{/f}g2 (g<b) TB>AB<G | (E<A)A>B A<af>a | (g/f/)(e/d/) B>g {/^c}d<BA>G | (F/G/A) D>d BG<G |]


